!!!OTL: VOEGELE IM TANNENWALD
!!!ARE: Europa, Mitteleuropa, Deutschland, Schwaben
!!!SCT: E0576
!!!YEM: Copyright 1995, estate of Helmut Schaffrath.
**kern
*ICvox
*Ivox
*M3/8
*k[b-]
*F:
=1
{16f
16g
8a
8b-
=2
8cc
8dd
8cc}
=3
{8dd
8cc
8b-
=4
8a
16ff
16ff
8ff}
=5
{16f
16g
8a
8b-
=6
8cc
8dd
8cc}
=7
{8dd
8cc
8b-
=8
4a
8r}
=9
{8a
16cc
16cc
8cc
=10
8cc
8b-
8b-}
=11
{8b-
8a
8a
=12
8a
16g
16g
8g}
=13
{16f
16g
8a
8b-
=14
8cc
8dd
8cc}
=15
{8dd
8cc
8b-
=16
4.a}
==
!!!AGN: Liebes - Lied
!!!ONB: ESAC (Essen Associative Code) Database: ERK1
!!!AMT: simple triple
!!!AIN: vox
!!!EED: Helmut Schaffrath
!!!EEV: 1.0
*-
